assets/loop-studios.svg

<svg width="88" height="88" viewBox="0 0 88 88" fill="none" xmlns="http://www.w3.org/2000/svg">
<g id="loop-studios">
<g id="Oval" filter="url(#filter0_i)">
<circle cx="44" cy="44" r="44" fill="#8D1558"/>
</g>
<g id="loopstudios 2">
<path id="loopstudios" fill-rule="evenodd" clip-rule="evenodd" d="M14.4111 43.8537C15.191 43.8537 15.8223 43.2189 15.8223 42.4348V31.419C15.8223 30.6348 15.191 30 14.4111 30C13.6313 30 13 30.6348 13 31.419V42.4348C13 43.2189 13.6313 43.8537 14.4111 43.8537ZM22.5318 43.9658C25.6326 43.9658 27.935 41.6319 27.935 38.7566V38.7193C27.935 35.844 25.6512 33.5475 22.569 33.5475C19.4682 33.5475 17.1658 35.8813 17.1658 38.7566V38.794C17.1658 41.6693 19.4496 43.9658 22.5318 43.9658ZM19.9509 38.7566C19.9509 40.2316 21.0093 41.5199 22.569 41.5199C24.1844 41.5199 25.1499 40.2689 25.1499 38.794V38.7566C25.1499 37.2816 24.0915 35.9933 22.5318 35.9933C20.9164 35.9933 19.9509 37.2443 19.9509 38.7193V38.7566ZM34.0318 43.9658C37.1326 43.9658 39.435 41.6319 39.435 38.7566V38.7193C39.435 35.844 37.1512 33.5475 34.069 33.5475C30.9682 33.5475 28.6658 35.8813 28.6658 38.7566V38.794C28.6658 41.6693 30.9496 43.9658 34.0318 43.9658ZM31.4509 38.7566C31.4509 40.2316 32.5093 41.5199 34.069 41.5199C35.6843 41.5199 36.6499 40.2689 36.6499 38.794V38.7566C36.6499 37.2816 35.5915 35.9933 34.0318 35.9933C32.4164 35.9933 31.4509 37.2443 31.4509 38.7193V38.7566ZM42.0597 46.8411C42.8395 46.8411 43.4708 46.2063 43.4708 45.4221V42.4348C44.1393 43.2376 45.0676 43.9284 46.5716 43.9284C48.9297 43.9284 51.1021 42.0987 51.1021 38.7566V38.7193C51.1021 35.3772 48.8926 33.5475 46.5716 33.5475C45.1048 33.5475 44.1578 34.2383 43.4708 35.1718V35.0411C43.4708 34.2569 42.8395 33.6221 42.0597 33.6221C41.2798 33.6221 40.6485 34.2569 40.6485 35.0411V45.4221C40.6485 46.2063 41.2798 46.8411 42.0597 46.8411ZM43.4337 38.7566C43.4337 40.4183 44.5292 41.5199 45.8475 41.5199C47.1658 41.5199 48.2798 40.437 48.2798 38.7566V38.7193C48.2798 37.0576 47.1658 35.956 45.8475 35.956C44.5292 35.956 43.4337 37.0576 43.4337 38.7193V38.7566ZM17.2891 57.9627C19.443 57.9627 21.0955 56.9544 21.0955 54.7326V54.6953C21.0955 52.8655 19.4801 52.1934 18.0875 51.7266C17.9817 51.6899 17.8771 51.6543 17.7746 51.6194L17.7743 51.6193C16.8335 51.2989 16.0637 51.0367 16.0637 50.5317V50.4943C16.0637 50.1022 16.4164 49.8035 17.1034 49.8035C17.6976 49.8035 18.4589 50.0462 19.2573 50.4383C19.443 50.5317 19.5729 50.569 19.7772 50.569C20.4085 50.569 20.9098 50.0836 20.9098 49.4488C20.9098 48.9633 20.6499 48.5899 20.2414 48.3845C19.2759 47.8991 18.1989 47.619 17.1592 47.619C15.1538 47.619 13.5199 48.7579 13.5199 50.7931V50.8304C13.5199 52.7722 15.0981 53.4256 16.4907 53.8364C16.6181 53.8755 16.7437 53.9128 16.8662 53.9492L16.867 53.9494L16.8674 53.9495C17.7983 54.226 18.5517 54.4497 18.5517 54.994V55.0313C18.5517 55.4794 18.1804 55.7782 17.3634 55.7782C16.565 55.7782 15.618 55.4794 14.6711 54.882C14.5225 54.7886 14.3183 54.7326 14.1141 54.7326C13.4828 54.7326 13 55.218 13 55.8529C13 56.301 13.2414 56.637 13.5385 56.8237C14.7454 57.6079 16.0637 57.9627 17.2891 57.9627ZM27.0809 57.6639C26.561 57.8693 26.0782 57.944 25.4655 57.944C23.7387 57.944 22.569 57.2532 22.569 54.938V50.1956H22.4761C21.8077 50.1956 21.2692 49.6541 21.2692 48.982C21.2692 48.3098 21.8077 47.7684 22.4761 47.7684H22.569V46.5174C22.569 45.7333 23.2003 45.0985 23.9801 45.0985C24.7599 45.0985 25.3912 45.7333 25.3912 46.5174V47.7684H26.6353C27.3037 47.7684 27.8422 48.3098 27.8422 48.982C27.8422 49.6541 27.3037 50.1956 26.6353 50.1956H25.3912V54.4712C25.3912 55.1247 25.6698 55.4421 26.3011 55.4421C26.3533 55.4421 26.4349 55.4362 26.5063 55.431H26.5063L26.5064 55.431H26.5064L26.5065 55.431L26.5065 55.431H26.5066C26.5619 55.427 26.611 55.4234 26.6353 55.4234C27.2666 55.4234 27.805 55.9462 27.805 56.5997C27.805 57.1038 27.4708 57.5146 27.0809 57.6639ZM32.2865 57.9627C33.7162 57.9627 34.5517 57.1972 35.2016 56.357V56.469C35.2016 57.2532 35.8329 57.888 36.6127 57.888C37.3926 57.888 38.0239 57.2532 38.0239 56.469V49.0753C38.0239 48.2912 37.3926 47.6564 36.6127 47.6564C35.8329 47.6564 35.2016 48.2912 35.2016 49.0753V53.351C35.2016 54.6953 34.5146 55.3861 33.4377 55.3861C32.3607 55.3861 31.7294 54.6953 31.7294 53.351V49.0753C31.7294 48.2912 31.0981 47.6564 30.3183 47.6564C29.5385 47.6564 28.9072 48.2912 28.9072 49.0753V54.2472C28.9072 56.5437 30.1512 57.9627 32.2865 57.9627ZM46.9058 56.3383C46.2188 57.2718 45.2719 57.9627 43.805 57.9627C41.4841 57.9627 39.2745 56.1329 39.2745 52.7908V52.7535C39.2745 49.4114 41.4469 47.5817 43.805 47.5817C45.309 47.5817 46.2374 48.2725 46.9058 49.0753V45.4532C46.9058 44.669 47.5371 44.0342 48.317 44.0342C49.0968 44.0342 49.7281 44.669 49.7281 45.4532V56.469C49.7281 57.2532 49.0968 57.888 48.317 57.888C47.5371 57.888 46.9058 57.2532 46.9058 56.469V56.3383ZM44.5292 55.5541C43.2109 55.5541 42.0968 54.4525 42.0968 52.7908V52.7535C42.0968 51.0731 43.2109 49.9902 44.5292 49.9902C45.8475 49.9902 46.943 51.0918 46.943 52.7535V52.7908C46.943 54.4525 45.8475 55.5541 44.5292 55.5541ZM54.5438 45.4159C54.5438 46.2374 53.8568 46.7602 52.9655 46.7602C52.0743 46.7602 51.3873 46.2374 51.3873 45.4159V45.3785C51.3873 44.557 52.0743 44.0529 52.9655 44.0529C53.8568 44.0529 54.5438 44.557 54.5438 45.3785V45.4159ZM52.9655 57.888C53.7454 57.888 54.3767 57.2532 54.3767 56.469V49.0753C54.3767 48.2912 53.7454 47.6564 52.9655 47.6564C52.1857 47.6564 51.5544 48.2912 51.5544 49.0753V56.469C51.5544 57.2532 52.1857 57.888 52.9655 57.888ZM66.4894 52.7908C66.4894 55.6661 64.187 58 61.0862 58C58.004 58 55.7202 55.7035 55.7202 52.8282V52.7908C55.7202 49.9155 58.0225 47.5817 61.1233 47.5817C64.2056 47.5817 66.4894 49.8782 66.4894 52.7535V52.7908ZM61.1233 55.5541C59.5637 55.5541 58.5053 54.2658 58.5053 52.7908V52.7535C58.5053 51.2785 59.4708 50.0276 61.0862 50.0276C62.6459 50.0276 63.7042 51.3158 63.7042 52.7908V52.8282C63.7042 54.3032 62.7387 55.5541 61.1233 55.5541ZM75 54.7326C75 56.9544 73.3475 57.9627 71.1936 57.9627C69.9682 57.9627 68.6499 57.6079 67.443 56.8237C67.1459 56.637 66.9045 56.301 66.9045 55.8529C66.9045 55.218 67.3873 54.7326 68.0186 54.7326C68.2228 54.7326 68.4271 54.7886 68.5756 54.882C69.5225 55.4794 70.4695 55.7782 71.2679 55.7782C72.0849 55.7782 72.4562 55.4794 72.4562 55.0313V54.994C72.4562 54.4497 71.7028 54.226 70.7719 53.9495C70.649 53.913 70.523 53.8756 70.3952 53.8364C69.0027 53.4256 67.4244 52.7722 67.4244 50.8304V50.7931C67.4244 48.7579 69.0584 47.619 71.0637 47.619C72.1035 47.619 73.1804 47.8991 74.1459 48.3845C74.5544 48.5899 74.8143 48.9633 74.8143 49.4488C74.8143 50.0836 74.313 50.569 73.6817 50.569C73.4775 50.569 73.3475 50.5317 73.1618 50.4383C72.3634 50.0462 71.6021 49.8035 71.008 49.8035C70.321 49.8035 69.9682 50.1022 69.9682 50.4943V50.5317C69.9682 51.0367 70.738 51.2989 71.6788 51.6193C71.7815 51.6542 71.8861 51.6899 71.992 51.7266C73.3846 52.1934 75 52.8655 75 54.6953V54.7326Z" fill="white"/>
</g>
</g>
<defs>
<filter id="filter0_i" x="0" y="0" width="88" height="88" filterUnits="userSpaceOnUse" color-interpolation-filters="sRGB">
<feFlood flood-opacity="0" result="BackgroundImageFix"/>
<feBlend mode="normal" in="SourceGraphic" in2="BackgroundImageFix" result="shape"/>
<feColorMatrix in="SourceAlpha" type="matrix" values="0 0 0 0 0 0 0 0 0 0 0 0 0 0 0 0 0 0 127 0" result="hardAlpha"/>
<feOffset/>
<feGaussianBlur stdDeviation="17.5"/>
<feComposite in2="hardAlpha" operator="arithmetic" k2="-1" k3="1"/>
<feColorMatrix type="matrix" values="0 0 0 0 0 0 0 0 0 0 0 0 0 0 0 0 0 0 0.0452633 0"/>
<feBlend mode="normal" in2="shape" result="effect1_innerShadow"/>
</filter>
</defs>
</svg>

<svg xmlns="http://www.w3.org/2000/svg" xmlns:xlink="http://www.w3.org/1999/xlink" width="88" height="88"><defs><filter id="b" width="139.8%" height="139.8%" x="-19.9%" y="-19.9%" filterUnits="objectBoundingBox"><feGaussianBlur in="SourceAlpha" result="shadowBlurInner1" stdDeviation="17.5"/><feOffset in="shadowBlurInner1" result="shadowOffsetInner1"/><feComposite in="shadowOffsetInner1" in2="SourceAlpha" k2="-1" k3="1" operator="arithmetic" result="shadowInnerInner1"/><feColorMatrix in="shadowInnerInner1" values="0 0 0 0 0 0 0 0 0 0 0 0 0 0 0 0 0 0 0.0452633304 0"/></filter><circle id="a" cx="44" cy="44" r="44"/></defs><g fill="none" fill-rule="evenodd"><use fill="#8D1558" xlink:href="#a"/><use fill="#000" filter="url(#b)" xlink:href="#a"/><path fill="#FFF" fill-rule="nonzero" d="M14.411 43.854c.78 0 1.411-.635 1.411-1.42V31.42c0-.784-.631-1.419-1.41-1.419-.78 0-1.412.635-1.412 1.419v11.016c0 .784.631 1.419 1.411 1.419zm8.12.112c3.102 0 5.404-2.334 5.404-5.21v-.037c0-2.875-2.284-5.172-5.366-5.172-3.1 0-5.403 2.334-5.403 5.21v.037c0 2.875 2.284 5.172 5.366 5.172zm.038-2.446c-1.56 0-2.618-1.288-2.618-2.763v-.038c0-1.475.965-2.726 2.58-2.726 1.56 0 2.619 1.289 2.619 2.764v.037c0 1.475-.966 2.726-2.581 2.726zm11.463 2.446c3.1 0 5.403-2.334 5.403-5.21v-.037c0-2.875-2.284-5.172-5.366-5.172-3.1 0-5.403 2.334-5.403 5.21v.037c0 2.875 2.284 5.172 5.366 5.172zm.037-2.446c-1.56 0-2.618-1.288-2.618-2.763v-.038c0-1.475.965-2.726 2.58-2.726 1.56 0 2.619 1.289 2.619 2.764v.037c0 1.475-.966 2.726-2.581 2.726zm7.99 5.321c.78 0 1.412-.635 1.412-1.419v-2.987c.668.803 1.597 1.493 3.1 1.493 2.359 0 4.531-1.83 4.531-5.171v-.038c0-3.342-2.21-5.172-4.53-5.172-1.467 0-2.414.691-3.101 1.625v-.13c0-.785-.631-1.42-1.411-1.42s-1.411.635-1.411 1.42v10.38c0 .784.63 1.42 1.41 1.42zm3.788-5.321c-1.318 0-2.413-1.102-2.413-2.763v-.038c0-1.661 1.095-2.763 2.413-2.763 1.319 0 2.433 1.102 2.433 2.763v.038c0 1.68-1.114 2.763-2.433 2.763zM17.29 57.963c2.154 0 3.806-1.009 3.806-3.23v-.038c0-1.83-1.615-2.502-3.007-2.968-1.077-.374-2.024-.635-2.024-1.195v-.038c0-.392.352-.69 1.04-.69.594 0 1.355.242 2.153.634.186.094.316.131.52.131.631 0 1.133-.485 1.133-1.12 0-.486-.26-.86-.669-1.064-.965-.486-2.042-.766-3.082-.766-2.005 0-3.64 1.139-3.64 3.174v.037c0 1.942 1.58 2.596 2.972 3.006 1.095.336 2.06.542 2.06 1.158v.037c0 .448-.37.747-1.188.747-.798 0-1.745-.299-2.692-.896a1.078 1.078 0 00-.557-.15c-.631 0-1.114.486-1.114 1.12 0 .449.241.785.538.972a6.908 6.908 0 003.751 1.139zm8.177-.019c.612 0 1.095-.075 1.615-.28.39-.15.724-.56.724-1.064a1.18 1.18 0 00-1.17-1.177c-.055 0-.241.02-.334.02-.631 0-.91-.318-.91-.972v-4.275h1.244c.669 0 1.207-.542 1.207-1.214 0-.672-.538-1.214-1.207-1.214h-1.244v-1.25c0-.785-.631-1.42-1.41-1.42-.78 0-1.412.635-1.412 1.42v1.25h-.093c-.668 0-1.207.542-1.207 1.214 0 .672.539 1.214 1.207 1.214h.093v4.742c0 2.315 1.17 3.006 2.897 3.006zm6.82.019c1.43 0 2.266-.766 2.916-1.606v.112c0 .784.63 1.419 1.41 1.419.78 0 1.412-.635 1.412-1.419v-7.394c0-.784-.631-1.419-1.411-1.419s-1.411.635-1.411 1.42v4.275c0 1.344-.687 2.035-1.764 2.035s-1.709-.69-1.709-2.035v-4.276c0-.784-.63-1.419-1.41-1.419-.78 0-1.412.635-1.412 1.42v5.171c0 2.297 1.244 3.716 3.38 3.716zm11.519 0c1.467 0 2.414-.691 3.1-1.625v.131c0 .784.632 1.419 1.412 1.419.78 0 1.411-.635 1.411-1.419V45.453c0-.784-.631-1.419-1.411-1.419s-1.411.635-1.411 1.42v3.621c-.669-.802-1.597-1.493-3.101-1.493-2.358 0-4.53 1.83-4.53 5.172v.037c0 3.342 2.21 5.172 4.53 5.172zm.724-2.409c-1.318 0-2.432-1.101-2.432-2.763v-.037c0-1.68 1.114-2.764 2.432-2.764 1.318 0 2.414 1.102 2.414 2.764v.037c0 1.662-1.096 2.763-2.414 2.763zm8.437-8.794c.89 0 1.578-.523 1.578-1.344v-.037c0-.822-.687-1.326-1.578-1.326-.892 0-1.579.504-1.579 1.326v.037c0 .821.687 1.344 1.579 1.344zm0 11.128c.78 0 1.41-.635 1.41-1.419v-7.394c0-.784-.63-1.419-1.41-1.419-.78 0-1.412.635-1.412 1.42v7.393c0 .784.632 1.419 1.412 1.419zm8.12.112c3.101 0 5.403-2.334 5.403-5.21v-.036c0-2.876-2.283-5.172-5.366-5.172-3.1 0-5.403 2.334-5.403 5.209v.037c0 2.875 2.284 5.172 5.366 5.172zm.037-2.446c-1.56 0-2.618-1.288-2.618-2.763v-.037c0-1.475.966-2.726 2.581-2.726 1.56 0 2.618 1.288 2.618 2.763v.037c0 1.475-.965 2.726-2.58 2.726zm10.07 2.409c2.154 0 3.807-1.009 3.807-3.23v-.038c0-1.83-1.615-2.502-3.008-2.968-1.077-.374-2.024-.635-2.024-1.195v-.038c0-.392.353-.69 1.04-.69.594 0 1.355.242 2.154.634.185.094.315.131.52.131.631 0 1.132-.485 1.132-1.12 0-.486-.26-.86-.668-1.064-.966-.486-2.043-.766-3.082-.766-2.006 0-3.64 1.139-3.64 3.174v.037c0 1.942 1.579 2.596 2.971 3.006 1.096.336 2.061.542 2.061 1.158v.037c0 .448-.371.747-1.188.747-.799 0-1.745-.299-2.692-.896a1.078 1.078 0 00-.557-.15c-.632 0-1.114.486-1.114 1.12 0 .449.24.785.538.972a6.908 6.908 0 003.75 1.139z"/></g></svg>
